src/assets/img/unsorted/emotes/15.svg

<svg xmlns:xlink="http://www.w3.org/1999/xlink" height="100.8" width="132.65" xmlns="http://www.w3.org/2000/svg"><use height="10.9" transform="translate(65.5 70.1)" width="24.45" xlink:href="#a"/><defs><g id="a"><path d="M-10.7 6.7q10.35-2.25 21.45.25" fill="none" stroke="#333" stroke-linecap="round" stroke-linejoin="round" transform="translate(12.25 3.45)"/><path d="M.4-1.95v-.75h2.05l-.1.8q-.05.75.35 1.3.4.5.95.5.55 0 .95-.5.4-.55.4-1.3l-.1-.8h3.4v.4L8.05-.45l-.9 1.6q-1 1.2-2.3 1.4l-.5.05-1-.15q-1.05-.35-1.8-1.3Q.5-.2.4-1.95m2.5-.75h.85l.1.35-.2.45-.3.2L3-1.9q-.15-.2-.15-.45l.05-.35m-5.7 5-1.5.35-1.1-.2q-.95-.3-1.7-1.25Q-7.7.5-8-.4q-.3-.85-.25-1.85v-.45h3.55l-.1.8q-.05.75.35 1.3.4.5.95.5.55 0 .95-.5.4-.55.4-1.3l-.1-.8h1.9v.75Q-.45-.15-1.5 1.2l-1.3 1.1m-1.4-5.1h.75l.05.1.1.35-.2.45-.3.2q-.25-.05-.35-.2l-.15-.45.05-.35.05-.1" fill="#fff" fill-rule="evenodd" transform="translate(12.25 3.45)"/><path d="M2.45-2.7h.45l-.05.35q0 .25.15.45l.35.2.3-.2.2-.45-.1-.35H4.9l.1.8q0 .75-.4 1.3-.4.5-.95.5-.55 0-.95-.5-.4-.55-.35-1.3l.1-.8m-7.15 0v-.1h.5l-.05.1-.05.35.15.45q.1.15.35.2l.3-.2.2-.45-.1-.35-.05-.1h1.2v.1l.1.8q0 .75-.4 1.3-.4.5-.95.5-.55 0-.95-.5-.4-.55-.35-1.3l.1-.8" fill-rule="evenodd" transform="translate(12.25 3.45)"/><path d="M-.35-1.95H.4Q.5-.2 1.55 1.15q.75.95 1.8 1.3L.9 2.3h-3.7l1.3-1.1Q-.45-.15-.35-1.95m8.4 1.5.6.3q3.5 1.8 3.55 2.8 0 .95-3.15.4l-4.2-.5q1.3-.2 2.3-1.4l.9-1.6M-5.4 2.45l-2.75.4-4.1-.2q0-.95 3.7-2.75L-8-.4q.3.9.9 1.6.75.95 1.7 1.25" fill="#6596cc" fill-opacity=".431" fill-rule="evenodd" transform="translate(12.25 3.45)"/><path d="M.4-1.95v-.75m7.9 0v.4L8.05-.45l-.9 1.6q-1 1.2-2.3 1.4l-.5.05-1-.15q-1.05-.35-1.8-1.3Q.5-.2.4-1.95M-2.8 2.3l-1.5.35-1.1-.2q-.95-.3-1.7-1.25Q-7.7.5-8-.4q-.3-.85-.25-1.85v-.45m7.9 0v.75Q-.45-.15-1.5 1.2l-1.3 1.1M9.15-2.95h-18.2" fill="none" stroke="#666" stroke-linecap="round" stroke-linejoin="round" transform="translate(12.25 3.45)"/></g></defs></svg>

<?xml version="1.0" encoding="UTF-8" standalone="no"?>
<svg xmlns:xlink="http://www.w3.org/1999/xlink" height="100.8px" width="132.65px" xmlns="http://www.w3.org/2000/svg">
  <g transform="matrix(1.0, 0.0, 0.0, 1.0, 77.75, 73.55)">
    <use height="10.9" transform="matrix(1.0, 0.0, 0.0, 1.0, -12.25, -3.45)" width="24.45" xlink:href="#shape0"/>
  </g>
  <defs>
    <g id="shape0" transform="matrix(1.0, 0.0, 0.0, 1.0, 12.25, 3.45)">
      <path d="M-10.7 6.7 Q-0.35 4.45 10.75 6.95" fill="none" stroke="#333333" stroke-linecap="round" stroke-linejoin="round" stroke-width="1.0"/>
      <path d="M0.4 -1.95 L0.4 -2.3 0.4 -2.7 2.45 -2.7 2.35 -1.9 Q2.3 -1.15 2.7 -0.6 3.1 -0.1 3.65 -0.1 4.2 -0.1 4.6 -0.6 5.0 -1.15 5.0 -1.9 L4.9 -2.7 8.3 -2.7 8.3 -2.3 8.05 -0.45 7.15 1.15 Q6.15 2.35 4.85 2.55 L4.35 2.6 3.35 2.45 Q2.3 2.1 1.55 1.15 0.5 -0.2 0.4 -1.95 M2.9 -2.7 L3.75 -2.7 3.85 -2.35 3.65 -1.9 3.35 -1.7 3.0 -1.9 Q2.85 -2.1 2.85 -2.35 L2.9 -2.7 M-2.8 2.3 L-4.3 2.65 -5.4 2.45 Q-6.35 2.15 -7.1 1.2 -7.7 0.5 -8.0 -0.4 -8.3 -1.25 -8.25 -2.25 L-8.25 -2.7 -4.7 -2.7 -4.8 -1.9 Q-4.85 -1.15 -4.45 -0.6 -4.05 -0.1 -3.5 -0.1 -2.95 -0.1 -2.55 -0.6 -2.15 -1.15 -2.15 -1.9 L-2.25 -2.7 -0.35 -2.7 -0.35 -2.25 -0.35 -1.95 Q-0.45 -0.15 -1.5 1.2 L-2.8 2.3 M-4.2 -2.8 L-3.45 -2.8 -3.4 -2.7 -3.3 -2.35 -3.5 -1.9 -3.8 -1.7 Q-4.05 -1.75 -4.15 -1.9 L-4.3 -2.35 -4.25 -2.7 -4.2 -2.8" fill="#ffffff" fill-rule="evenodd" stroke="none"/>
      <path d="M2.45 -2.7 L2.9 -2.7 2.85 -2.35 Q2.85 -2.1 3.0 -1.9 L3.35 -1.7 3.65 -1.9 3.85 -2.35 3.75 -2.7 4.9 -2.7 5.0 -1.9 Q5.0 -1.15 4.6 -0.6 4.2 -0.1 3.65 -0.1 3.1 -0.1 2.7 -0.6 2.3 -1.15 2.35 -1.9 L2.45 -2.7 M-4.7 -2.7 L-4.7 -2.8 -4.2 -2.8 -4.25 -2.7 -4.3 -2.35 -4.15 -1.9 Q-4.05 -1.75 -3.8 -1.7 L-3.5 -1.9 -3.3 -2.35 -3.4 -2.7 -3.45 -2.8 -2.25 -2.8 -2.25 -2.7 -2.15 -1.9 Q-2.15 -1.15 -2.55 -0.6 -2.95 -0.1 -3.5 -0.1 -4.05 -0.1 -4.45 -0.6 -4.85 -1.15 -4.8 -1.9 L-4.7 -2.7" fill="#000000" fill-rule="evenodd" stroke="none"/>
      <path d="M-0.35 -1.95 L0.15 -1.95 0.4 -1.95 Q0.5 -0.2 1.55 1.15 2.3 2.1 3.35 2.45 L0.9 2.3 -2.8 2.3 -1.5 1.2 Q-0.45 -0.15 -0.35 -1.95 M8.05 -0.45 L8.65 -0.15 Q12.15 1.65 12.2 2.65 12.2 3.6 9.05 3.05 L4.85 2.55 Q6.15 2.35 7.15 1.15 L8.05 -0.45 M-5.4 2.45 L-8.15 2.85 -12.25 2.65 Q-12.25 1.7 -8.55 -0.1 L-8.0 -0.4 Q-7.7 0.5 -7.1 1.2 -6.35 2.15 -5.4 2.45" fill="#6596cc" fill-opacity="0.43137255" fill-rule="evenodd" stroke="none"/>
      <path d="M0.4 -1.95 L0.4 -2.3 0.4 -2.7 M8.3 -2.7 L8.3 -2.3 8.05 -0.45 7.15 1.15 Q6.15 2.35 4.85 2.55 L4.35 2.6 3.35 2.45 Q2.3 2.1 1.55 1.15 0.5 -0.2 0.4 -1.95 M-2.8 2.3 L-4.3 2.65 -5.4 2.45 Q-6.35 2.15 -7.1 1.2 -7.7 0.5 -8.0 -0.4 -8.3 -1.25 -8.25 -2.25 L-8.25 -2.7 M-0.35 -2.7 L-0.35 -2.25 -0.35 -1.95 Q-0.45 -0.15 -1.5 1.2 L-2.8 2.3" fill="none" stroke="#666666" stroke-linecap="round" stroke-linejoin="round" stroke-width="1.0"/>
      <path d="M9.15 -2.95 L-9.05 -2.95" fill="none" stroke="#666666" stroke-linecap="round" stroke-linejoin="round" stroke-width="1.0"/>
    </g>
  </defs>
</svg>
